src/assets/icons/person3.svg

<?xml version="1.0" encoding="UTF-8"?>
<svg fill="none" viewBox="0 0 120 120" xmlns="http://www.w3.org/2000/svg">
<g clip-path="url(#a)">
<path d="m120 60c0-33.132-26.868-60-60-60s-60 26.868-60 60 26.868 60 60 60 60-26.868 60-60z" fill="#EA4949"/>
<path d="m69.408 68.222h-18.815c2.9263 8.8513 0.2419 12.89 0.2419 12.89l6.5054 1.4752h5.3204l6.5055-1.4752s-2.6844-4.0387 0.2418-12.89z" fill="#E2A379"/>
<path d="m60.024 94.341c10.859 0 9.1415-13.228 9.1415-13.228s-2.1524 4.1838-9.214 4.1838c-7.0617 0-9.0689-4.1838-9.0689-4.1838s-1.7171 13.228 9.1414 13.228z" fill="#E2A379"/>
<path d="m59.928 80.629c-18.67 0-33.64 5.3446-35.405 11.923-0.7981 2.9504-1.6929 8.5126-2.4426 13.906 10.326 8.44 23.555 13.519 37.944 13.519s27.594-5.079 37.944-13.519c-0.7739-5.393-1.6687-10.979-2.4426-13.906-1.8138-6.578-16.953-11.923-35.598-11.923z" fill="#E2A379"/>
<path d="m79.516 32.576h-38.815v61.669h38.815v-61.669z" fill="#2B1407"/>
<path d="m70.931 78.573h-21.814v5.006h21.814v-5.006z" fill="#8BACAF"/>
<path d="m59.928 80.629c-18.67 0-33.64 5.3446-35.405 11.923-0.7981 2.9504-1.6929 8.5126-2.4426 13.906 10.326 8.44 23.555 13.519 37.944 13.519s27.594-5.079 37.944-13.519c-0.7739-5.393-1.6687-10.979-2.4426-13.906-1.8138-6.578-16.953-11.923-35.598-11.923z" fill="#E9F2F4"/>
<path d="m59.928 84.74c-3.8211 0-7.497 0.2177-10.931 0.6288-13.325 1.5961 11.004 27.69 11.004 27.69s24.184-26.118 10.762-27.714c-3.4099-0.3869-7.0617-0.6046-10.834-0.6046z" fill="#019897"/>
<path d="m59.928 80.629c-3.8211 0-7.497 0.2176-10.931 0.6287-13.325 1.5962 0.0484 14.752 11.004 14.752 10.955 0 24.184-13.18 10.762-14.776-3.4099-0.387-7.0617-0.6046-10.834-0.6046z" fill="#E2A379"/>
<path d="m49.166 104.86h-15.236v2.539h15.236v-2.539z" fill="#C9DEE2"/>
<path d="m69.408 68.222h-18.815c2.9263 8.8513 0.2419 12.89 0.2419 12.89h18.331s-2.6844-4.0387 0.2418-12.89z" fill="#E2A379"/>
<path d="m86.578 85.03-15.647-6.457-10.931 34.873 19.806-23.216-2.6602-2.6602h3.9903l5.4414-2.5393z" fill="#C9DEE2"/>
<path d="m33.398 85.03 15.72-6.457 10.883 34.873-19.831-23.216 2.6602-2.6602h-3.9903l-5.4414-2.5393z" fill="#C9DEE2"/>
<path d="m79.299 42.37c0-22.346-8.6336-27.473-19.299-27.473-10.641 0-19.299 5.127-19.299 27.473 0 7.5695 1.3543 13.495 3.3857 18.065 4.4498 10.06 12.164 13.567 15.913 13.567s11.439-3.5066 15.913-13.567c2.0314-4.5707 3.3857-10.496 3.3857-18.065z" fill="#F4B382"/>
<path d="m38.863 50.23c1.0399 6.0944 2.3216 6.3604 4.1838 6.046l-1.9589-13.253c-1.8622 0.3385-3.2649 1.1366-2.2249 7.2067z" fill="#F4B382"/>
<path d="m78.96 43.047-1.9589 13.253c1.838 0.3144 3.1439 0.0242 4.1838-6.046 1.0157-6.0943-0.3869-6.8924-2.2249-7.2068z" fill="#F4B382"/>
<path d="m72.044 18.452c-14.438 10.496-28.706 24.74-30.181 38.065-0.5804 5.2721 4.5466 11.246 6.2878 14.22 1.6203 2.7086 3.1923 7.6179 3.821 9.1173 6.3362 15.163-10.568 18.428-10.568 18.428l-0.4595 0.2419s7.2794-2.3942-1.3784-16.348c-1.3543-2.1523-5.5623-7.11-5.1996-13.543 0.3628-6.5296 5.0545-7.6904 4.595-11.85-0.4353-3.9662-5.2963-9.8428-4.8368-14.075 0.9432-8.8513 4.3047-17.92 11.923-25.586l25.998 1.3301z" fill="#47200D"/>
<path d="m60 13.156c-11.778 0-21.354 2.3942-21.354 24.74 0 0 21.33-5.4655 21.33-13.591 0-0.1935 0.0242-11.149 0.0242-11.149z" fill="#47200D"/>
<path d="m53.712 24.837c1.0399 3.7001 5.006 3.7001 8.3434 6.4329 9.0931 7.4002 15.284 17.05 16.203 25.248 0.5804 5.2721-4.5465 11.246-6.2877 14.22-1.6204 2.7086-3.1923 7.6179-3.8211 9.1173-6.3361 15.163 10.52 18.549 10.52 18.549l0.5078 0.0967s-7.2793-2.3942 1.3785-16.348c1.3543-2.1524 5.5623-7.1101 5.1995-13.543-0.3627-6.5296-5.0544-7.6904-4.5949-11.85 0.4353-3.9662 5.2962-9.8428 4.8368-14.075-0.9432-8.8513-3.0956-18.162-10.689-24.861-1.9831-1.7413-4.3531-4.6433-15.308-4.6433 0-0.0242-8.0049 5.5623-6.2878 11.657z" fill="#47200D"/>
<path d="m60 14.293c-19.033 0-19.129 19.371-19.129 19.347l-0.0242 0.0241s0.0242-0.0241 0.0242 0c0 0.0242 6.844-5.8283 19.129-5.8283s19.129 5.8283 19.129 5.8283h0.0242l-0.0242-0.0241c0 0.0241-0.0967-19.347-19.129-19.347z" fill="#E6E7E8"/>
<path d="m60 26.699c3.112 0 5.6348-2.5228 5.6348-5.6348s-2.5228-5.6348-5.6348-5.6348-5.6348 2.5228-5.6348 5.6348 2.5228 5.6348 5.6348 5.6348z" fill="#D61E1E"/>
<path d="m63.894 20.024h-7.763v2.0556h7.763v-2.0556z" fill="#E6E7E8"/>
<path d="m61.016 17.195h-2.0557v7.763h2.0557v-7.763z" fill="#E6E7E8"/>
<path d="m66.457 63.797s-3.4341 2.3216-6.4571 2.3216-6.4571-2.3216-6.4571-2.3216c0-0.3386 2.7328-1.2818 3.8936-1.4511 0.7255-0.1209 2.5635 0.6046 2.5635 0.6046s1.8138-0.7013 2.5151-0.6046c1.185 0.1693 3.942 1.4511 3.942 1.4511z" fill="#B74E39"/>
<path d="m66.457 63.797s-3.4341 3.2649-6.4571 3.2649-6.4571-3.2649-6.4571-3.2649 1.572 0.3628 4.74 0.1693c0.5321-0.0241 1.2334 0.387 1.6929 0.387 0.4111 0 1.0157-0.4353 1.4752-0.4112 3.3374 0.1935 5.0061-0.1451 5.0061-0.1451z" fill="#AA4035"/>
</g>
<defs>
<clipPath id="a">
<rect width="120" height="120" fill="#fff"/>
</clipPath>
</defs>
</svg>

<svg width="120" height="120" viewBox="0 0 120 120" fill="none" xmlns="http://www.w3.org/2000/svg">
<g clip-path="url(#clip0_2_156)">
<path d="M120 60C120 26.8682 93.1318 0 60 0C26.8682 0 0 26.8682 0 60C0 93.1318 26.8682 120 60 120C93.1318 120 120 93.1318 120 60Z" fill="#EA4949"/>
<path d="M69.4075 68.2225H50.5925C53.5188 77.0738 50.8344 81.1125 50.8344 81.1125L57.3398 82.5877H62.6602L69.1657 81.1125C69.1657 81.1125 66.4813 77.0738 69.4075 68.2225Z" fill="#E2A379"/>
<path d="M60.0242 94.341C70.8828 94.341 69.1657 81.1125 69.1657 81.1125C69.1657 81.1125 67.0133 85.2963 59.9517 85.2963C52.89 85.2963 50.8828 81.1125 50.8828 81.1125C50.8828 81.1125 49.1657 94.341 60.0242 94.341Z" fill="#E2A379"/>
<path d="M59.9275 80.6288C41.2576 80.6288 26.2878 85.9734 24.5224 92.5514C23.7243 95.5018 22.8295 101.064 22.0798 106.457C32.4063 114.897 45.6348 119.976 60.0242 119.976C74.4136 119.976 87.6179 114.897 97.9686 106.457C97.1947 101.064 96.2999 95.4776 95.526 92.5514C93.7122 85.9734 78.5732 80.6288 59.9275 80.6288Z" fill="#E2A379"/>
<path d="M79.5163 32.5756H40.7014V94.2443H79.5163V32.5756Z" fill="#2B1407"/>
<path d="M70.9311 78.5732H49.1173V83.5792H70.9311V78.5732Z" fill="#8BACAF"/>
<path d="M59.9275 80.6288C41.2576 80.6288 26.2878 85.9734 24.5224 92.5514C23.7243 95.5018 22.8295 101.064 22.0798 106.457C32.4063 114.897 45.6348 119.976 60.0242 119.976C74.4136 119.976 87.6179 114.897 97.9686 106.457C97.1947 101.064 96.2999 95.4776 95.526 92.5514C93.7122 85.9734 78.5732 80.6288 59.9275 80.6288Z" fill="#E9F2F4"/>
<path d="M59.9275 84.74C56.1064 84.74 52.4305 84.9577 48.9964 85.3688C35.6711 86.9649 60 113.059 60 113.059C60 113.059 84.1838 86.9407 70.7618 85.3446C67.3519 84.9577 63.7001 84.74 59.9275 84.74Z" fill="#019897"/>
<path d="M59.9275 80.6288C56.1064 80.6288 52.4305 80.8464 48.9964 81.2575C35.6711 82.8537 49.0448 96.0097 60 96.0097C70.9553 96.0097 84.1838 82.8295 70.7618 81.2334C67.3519 80.8464 63.7001 80.6288 59.9275 80.6288Z" fill="#E2A379"/>
<path d="M49.1657 104.861H33.9299V107.4H49.1657V104.861Z" fill="#C9DEE2"/>
<path d="M69.4075 68.2225H50.5925C53.5188 77.0738 50.8344 81.1125 50.8344 81.1125H69.1657C69.1657 81.1125 66.4813 77.0738 69.4075 68.2225Z" fill="#E2A379"/>
<path d="M86.578 85.0302L70.9311 78.5732L60 113.446L79.8065 90.2297L77.1463 87.5695H81.1366L86.578 85.0302Z" fill="#C9DEE2"/>
<path d="M33.3978 85.0302L49.1173 78.5732L60 113.446L40.1693 90.2297L42.8295 87.5695H38.8392L33.3978 85.0302Z" fill="#C9DEE2"/>
<path d="M79.2986 42.37C79.2986 20.0242 70.665 14.8972 60 14.8972C49.3591 14.8972 40.7013 20.0242 40.7013 42.37C40.7013 49.9395 42.0556 55.8646 44.087 60.4353C48.5368 70.4958 56.2515 74.0024 60 74.0024C63.7485 74.0024 71.4389 70.4958 75.9129 60.4353C77.9443 55.8646 79.2986 49.9395 79.2986 42.37Z" fill="#F4B382"/>
<path d="M38.8634 50.2297C39.9033 56.3241 41.185 56.5901 43.0472 56.2757L41.0883 43.023C39.2261 43.3615 37.8234 44.1596 38.8634 50.2297Z" fill="#F4B382"/>
<path d="M78.9601 43.0471L77.0012 56.2999C78.8392 56.6143 80.1451 56.3241 81.185 50.2539C82.2007 44.1596 80.7981 43.3615 78.9601 43.0471Z" fill="#F4B382"/>
<path d="M72.0435 18.4522C57.6058 28.948 43.3373 43.1923 41.8621 56.5175C41.2817 61.7896 46.4087 67.763 48.1499 70.7376C49.7702 73.4462 51.3422 78.3555 51.9709 79.8549C58.3071 95.0181 41.4026 98.2829 41.4026 98.2829L40.9431 98.5248C40.9431 98.5248 48.2225 96.1306 39.5647 82.1765C38.2104 80.0242 34.0024 75.0665 34.3651 68.6336C34.7279 62.104 39.4196 60.9432 38.9601 56.7836C38.5248 52.8174 33.6638 46.9408 34.1233 42.7086C35.0665 33.8573 38.428 24.7884 46.0459 17.1221L72.0435 18.4522Z" fill="#47200D"/>
<path d="M60 13.156C48.2225 13.156 38.6457 15.5502 38.6457 37.896C38.6457 37.896 59.9758 32.4305 59.9758 24.3047C59.9758 24.1112 60 13.156 60 13.156Z" fill="#47200D"/>
<path d="M53.7122 24.8368C54.7521 28.5369 58.7182 28.5369 62.0556 31.2697C71.1487 38.6699 77.3398 48.3192 78.2587 56.5175C78.8391 61.7896 73.7122 67.763 71.971 70.7376C70.3506 73.4462 68.7787 78.3555 68.1499 79.8549C61.8138 95.0182 78.6699 98.4039 78.6699 98.4039L79.1777 98.5006C79.1777 98.5006 71.8984 96.1064 80.5562 82.1524C81.9105 80 86.1185 75.0423 85.7557 68.6094C85.393 62.0798 80.7013 60.919 81.1608 56.7594C81.5961 52.7932 86.457 46.9166 85.9976 42.6844C85.0544 33.8331 82.902 24.5224 75.3083 17.8235C73.3252 16.0822 70.9552 13.1802 60 13.1802C60 13.156 51.9951 18.7425 53.7122 24.8368Z" fill="#47200D"/>
<path d="M60 14.2926C40.9674 14.2926 40.8706 33.6638 40.8706 33.6397L40.8464 33.6638C40.8464 33.6638 40.8706 33.6397 40.8706 33.6638C40.8706 33.688 47.7146 27.8355 60 27.8355C72.2854 27.8355 79.1294 33.6638 79.1294 33.6638H79.1536L79.1294 33.6397C79.1294 33.6638 79.0327 14.2926 60 14.2926Z" fill="#E6E7E8"/>
<path d="M60 26.6989C63.112 26.6989 65.6348 24.1761 65.6348 21.0641C65.6348 17.9521 63.112 15.4293 60 15.4293C56.888 15.4293 54.3652 17.9521 54.3652 21.0641C54.3652 24.1761 56.888 26.6989 60 26.6989Z" fill="#D61E1E"/>
<path d="M63.8936 20.0242H56.1306V22.0798H63.8936V20.0242Z" fill="#E6E7E8"/>
<path d="M61.0158 17.1947H58.9601V24.9577H61.0158V17.1947Z" fill="#E6E7E8"/>
<path d="M66.4571 63.7969C66.4571 63.7969 63.023 66.1185 60 66.1185C56.977 66.1185 53.5429 63.7969 53.5429 63.7969C53.5429 63.4583 56.2757 62.5151 57.4365 62.3458C58.162 62.2249 60 62.9504 60 62.9504C60 62.9504 61.8138 62.2491 62.5151 62.3458C63.7001 62.5151 66.4571 63.7969 66.4571 63.7969Z" fill="#B74E39"/>
<path d="M66.4571 63.7968C66.4571 63.7968 63.023 67.0617 60 67.0617C56.977 67.0617 53.5429 63.7968 53.5429 63.7968C53.5429 63.7968 55.1149 64.1596 58.2829 63.9661C58.815 63.942 59.5163 64.3531 59.9758 64.3531C60.3869 64.3531 60.9915 63.9178 61.451 63.9419C64.7884 64.1354 66.4571 63.7968 66.4571 63.7968Z" fill="#AA4035"/>
</g>
<defs>
<clipPath id="clip0_2_156">
<rect width="120" height="120" fill="white"/>
</clipPath>
</defs>
</svg>
